brandFactory_export/3.Masa/Edificio_Casa_3Masa.svg

<?xml version="1.0" encoding="UTF-8"?>
<svg width="24px" height="24px" viewBox="0 0 24 24" version="1.1" xmlns="http://www.w3.org/2000/svg" xmlns:xlink="http://www.w3.org/1999/xlink">
    <title>3.Masa/Edificio_Casa_3Masa</title>
    <g id="Symbols" stroke="none" stroke-width="1" fill="none" fill-rule="evenodd">
        <g id="3.Masa/Edificio_Casa_3Masa" fill="#5CB615" fill-rule="nonzero">
            <path d="M16.9731092,6.74957983 C16.9731092,7.02184874 16.7546218,7.24033613 16.4857143,7.24033613 L13.3798319,7.24033613 C13.1109244,7.24033613 12.892437,7.01848739 12.892437,6.74957983 L12.892437,3.61008403 C12.892437,3.33781513 13.1109244,3.11932773 13.3798319,3.11932773 L16.4857143,3.11932773 C16.7546218,3.11932773 16.9731092,3.33781513 16.9731092,3.61008403 L16.9731092,6.74957983 Z M16.9731092,12.9142857 C16.9731092,13.1865546 16.7546218,13.405042 16.4857143,13.405042 L13.3798319,13.405042 C13.1109244,13.405042 12.892437,13.1831933 12.892437,12.9142857 L12.892437,9.77142857 C12.892437,9.49915966 13.1109244,9.28067227 13.3798319,9.28067227 L16.4857143,9.28067227 C16.7546218,9.28067227 16.9731092,9.50252101 16.9731092,9.77142857 L16.9731092,12.9142857 Z M10.8319328,6.74957983 C10.8319328,7.02184874 10.6134454,7.24033613 10.3445378,7.24033613 L7.23865546,7.24033613 C6.9697479,7.24033613 6.7512605,7.01848739 6.7512605,6.74957983 L6.7512605,3.61008403 C6.7512605,3.33781513 6.9697479,3.11932773 7.23865546,3.11932773 L10.3445378,3.11932773 C10.6134454,3.11932773 10.8319328,3.33781513 10.8319328,3.61008403 L10.8319328,6.74957983 Z M10.8319328,12.9142857 C10.8319328,13.1865546 10.6134454,13.405042 10.3445378,13.405042 L7.23865546,13.405042 C6.9697479,13.405042 6.7512605,13.1831933 6.7512605,12.9142857 L6.7512605,9.77142857 C6.7512605,9.49915966 6.9697479,9.28067227 7.23865546,9.28067227 L10.3445378,9.28067227 C10.6134454,9.28067227 10.8319328,9.50252101 10.8319328,9.77142857 L10.8319328,12.9142857 Z M19.2857143,0 L4.48907563,0 C3.72605042,0 3.0302521,0.68907563 3.0302521,1.44201681 L3.0302521,22.1815126 C3.0302521,22.9512605 3.71260504,23.6235294 4.48907563,23.6235294 L9.34957983,23.6235294 L9.34957983,17.0151261 C9.34957983,16.7428571 9.56806723,16.5243697 9.83697479,16.5243697 L13.9411765,16.5243697 C14.210084,16.5243697 14.4285714,16.7428571 14.4285714,17.0151261 L14.4285714,23.6235294 L19.2890756,23.6235294 C20.0655462,23.6235294 20.7478992,22.9478992 20.7478992,22.1815126 L20.7478992,1.44201681 C20.7445378,0.68907563 20.0487395,0 19.2857143,0 Z" id="Edificio_Casa_3Masa"></path>
        </g>
    </g>
</svg>

<svg width="24" height="24" viewBox="0 0 24 24" xmlns="http://www.w3.org/2000/svg"><path d="M16.973 6.75c0 .272-.218.49-.487.49H13.38a.49.49 0 01-.488-.49V3.61c0-.272.219-.49.488-.49h3.106c.269 0 .487.218.487.49v3.14zm0 6.164c0 .273-.218.491-.487.491H13.38a.49.49 0 01-.488-.49V9.77c0-.272.219-.49.488-.49h3.106a.49.49 0 01.487.49v3.143zM10.832 6.75c0 .272-.219.49-.487.49H7.239a.49.49 0 01-.488-.49V3.61c0-.272.219-.49.488-.49h3.106c.268 0 .487.218.487.49v3.14zm0 6.164c0 .273-.219.491-.487.491H7.239a.49.49 0 01-.488-.49V9.77c0-.272.219-.49.488-.49h3.106a.49.49 0 01.487.49v3.143zM19.286 0H4.489C3.726 0 3.03.69 3.03 1.442v20.74c0 .77.683 1.442 1.46 1.442h4.86v-6.609c0-.272.218-.49.487-.49h4.104c.27 0 .488.218.488.49v6.609h4.86c.777 0 1.459-.676 1.459-1.442V1.442C20.745.689 20.048 0 19.286 0z" fill="#5CB615" fill-rule="nonzero"/></svg>
